X:1
T:The Gipsy Countess -Parsons
C:Taken down from Jas. Parsons by F.W.B. Dec. 1888.
%%VWML:SBG-1-1-253-0
F:http://www.vwml.org/record/SBG/1/1/253
Z:Original Sibleius Transcription by Martin and Shan Graebe
L:1/8
M:6/8
K:Bb
G | G2 d d2 c | d>dd G2 A | B2 c d2 e | f2 f d2 d/d/ | B2 B c2 c |$ d2 d g2 g | f2 d cBc | 
d2 G G2 D | G2 G d2 d | B2 B G2 A | B2 c d2 e |$ f2 f d2 d | G2 A B2 c | d>=e^f g2 g | f>dd c>Bc | 
d2 G G2 z ||
T:The Gipsy Countess-Woodridge
T:Taken down from J. Woodrich by F.W.B.
L:1/16
M:2/4
K:Eb
B2 | B3 G B2 B A | G2 F2 E3 E | e2 ed c2 f2 | d2 B2 B2 z B | e4 e2d2 c2 B B | dc BG E2 F2 |$ 
G2 c2 F2 B A | G2 E2 !fermata!E3"^Chorus" E | G2 B2 B3 G | A2 c2 c3 d | e2 dc Bc B A | 
G2 E2 E2 z2 ||
T:The Gipsy Countess - Cheriton
T:Sent me as sung by P. Cheriton, shoemaker, Tiverton; sent by Rev. Berkley.
L:1/8
M:4/4
I:linebreak $
K:G
D2 | G3 F G2 A2 | G F E D3 z A | A2 _B2 d2 _e2 | (c2 A) G F3 D |$ A2 A _B c2 A G | 
F2 E2 !fermata!D3 D | G2 D2 G2 A2 | F2 E2 D3 D | D2 d2 d2 e d |$ c3 A !fermata!A2 z D | 
A3 A/B/ c2 AG/F/ | E2 D3 z2 D/ D/ | A3 A/ A/ B c B AG | F2 E2 !fermata!D2 z2 || 
T:The Gipsy Countess- Scotts Musical Mus
T:“Johnny Faa”​Scotts “Musical Museum” II p. 189.
L:1/8
M:4/4
I:linebreak $
K:C
G | G2 GA c3 B | AG Ac d3 e | G3 A ce dc | A4 G3 G | G2 GA c3 B |$ AG Ac d3 e | G3 A ce dc | 
A4 G3 || e | d2 de g3 a | ge d>e c3 e |$ d3 e g3 f | e4 d3 e | d2 d e g3 a | ge dc c3 (d/e/) | 
G3 A ce dc | A4 G3 z ||
T:The Gipsy Countess - Fone
T:Taken down from S. Fone by F.W.B. Mch. 1893.
L:1/8
M:4/4
I:linebreak $
K:G
B,2 | E2 E>F G2 FE | A2 G>A B2 B,2 | E2 E/F/ G2 F>E | F2 E2 F2 B,2 |$ E2 E>F G2 FE | 
A2 G>A B2 G/A/ | (B2 .e2) B2 A2 | G2 E2 E2 G2 | A2 G/A/ B2 E2 | e2 d^c B2 GA |$ B2 AF G2 FE | 
E2 B,2 B,2 B,2 | E2 E>F G2 F>E | (5:4:5ABAGG B2 G>A | B2 e2 BAGF |$ G2 E2 E3 B, | E2 E2 F3 E | 
A2 A2 B2 G>A | B2 e2 BAGF | G2 E2 E4 || 
W:Fone heard this 68 years ago from an old woman for whom he used to carry milk when he was a child.

